!!!!SEGMENT: pl-kk--kk-i-389--002-004_anonim--missa-no-2-graduale-alleluia-ave-maria.krn
!!!cenid: 17xx:2463
!!!COM: Anonim
!!!COM-rismID: pe30004985
!!!CDT:
!!!CNT:
!!!OPR: [Missa] No. 2.
!!!OTL: Graduale/Alleluia. Ave Maria
!!!OMV: 004
!!!PDT:
!!!AGN: Sacred; Mass
!!!YEC: Copyright 2022 Narodowy Instytut Fryderyka Chopina (https://polishscores.org)
!!!YEM: License CC-BY-4.0 (https://creativecommons.org/licenses/by/4.0)
!!!SMS-siglum: PL-Kk
!!!SMS-shelfmark: Kk.I.389
!!!SMS-variant:
!!!SMS-altvar:
!!!SMS-shelfwork: 002-004 M
!!!NIFC-rismSourceID: 1001146182
!!!NIFC-rismChildID: 1001146223
!!!NIFC-islandoraID: pl-kk:6976
!!!URL-pdf-islandora: https://repozytorium.nifc.pl/islandora/object/pl-kk%3A6976/datastream/PDF/view
!!!URL-scan: https://polish.musicsources.pl/pl/lokalizacje/galeria/rekopisy/5999/1 @EN{Scan on Polish Music Sources Website} @PL{Skany w portalu Dziedzictwo Muzyki Polskiej w otwartym dostępie}
!!!IIIF:
!!!ONB-nifc: UWAGA: S – skan 4-5, A – 23-24, T – 42-43 , B – 61-62. Części Mszy: Rorate, Kyrie, Gloria, Graduale, Sanctus, Benedictus, Agnus.
!!!OMD:
!!!AIN: 1 alto 1 bass 1 soprn 1 tenor
!!!key: F
**kern	**text	**kern	**text	**kern	**text	**kern	**text
*part4	*part4	*part3	*part3	*part2	*part2	*part1	*part1
*staff4	*staff4	*staff3	*staff3	*staff2	*staff2	*staff1	*staff1
*ICvox	*	*ICvox	*	*ICvox	*	*ICvox	*
*Ibass	*	*Itenor	*	*Ialto	*	*Isoprn	*
*I"Basso.	*	*I"Tenore.	*	*I"Alto.	*	*I"Soprano.	*
*I'B	*	*I'T	*	*I'A	*	*I'S	*
*clefF4	*	*clefC4	*	*clefC3	*	*clefC1	*
*k[b-]	*	*k[b-]	*	*k[b-]	*	*k[b-]	*
*F:	*	*F:	*	*F:	*	*F:	*
*M2/2	*	*M2/2	*	*M2/2	*	*M2/2	*
*met(C|)	*	*met(C|)	*	*met(C|)	*	*met(C|)	*
=1	=1	=1	=1	=1	=1	=1	=1
!LO:TX:a:t=3.	!	!LO:TX:a:t=2	!	!LO:TX:a:t=1.	!	!	!
0r	.	0r	.	1r	.	1cc	Al-
=2	=2	=2	=2	=2	=2	=2	=2
*	*	*	*	*	*	*4\right	*
.	.	.	.	1f	Al-	4a\	-le-
.	.	.	.	.	.	4g\	.
.	.	.	.	.	.	4a\	.
.	.	.	.	.	.	4f\	-lu-
=3	=3	=3	=3	=3	=3	=3	=3
*	*	*	*	*4\right	*	*2\right	*
1r	.	1c	Al-	4e\	-le-	2cc\	-ia,
.	.	.	.	4d\	.	.	.
.	.	.	.	4e\	-lu-	4cc\	al-
.	.	.	.	4c\	.	4g\	.
=4	=4	=4	=4	=4	=4	=4	=4
*	*	*4\right	*	*2\right	*	*	*
1F	Al-	4A\	-le-	2f\	-ia,	2a\	-le-
.	.	4G\	.	.	.	.	.
.	.	4A/	.	4f\	al-	4a\	-lu-
.	.	4F/	-lu-	4a\	.	4cc\	.
=5	=5	=5	=5	=5	=5	=5	=5
*4\right	*	*2\right	*	*	*	*	*
4E\	-le-	2c\	-ia	4g\	-le-	2cc\	-ia,
4D\	.	.	.	4f\	.	.	.
4E\	.	2c\	al-	4g\	-lu-	4cc\	al-
4C\	-lu-	.	.	4e\	.	4g\	.
=6	=6	=6	=6	=6	=6	=6	=6
*2\right	*	*	*	*	*	*	*
2.F\	-ia,	2c\	-le-	2.f\	-ia,	4a\	-le-
.	.	.	.	.	.	4b-\	.
.	.	2c\	-lu-	.	.	4cc\	.
4F\	al-	.	.	4f\	al-	4a\	.
!	!	!	!	!	!	!LO:LB:g=original	!
=7	=7	=7	=7	=7	=7	=7	=7
2G\	-le-	2B-\	-ia	2e-X\	-le-	2b-\	-lu-
2A\	-lu-	2A\	al-	2e-\	-lu-	2cc\	.
!	!	!	!	!LO:LB:g=original	!	!	!
=8	=8	=8	=8	=8	=8	=8	=8
2B-\	-ia,	1d	-le-	2d\	-ia	2dd\	-ia,
2D\	al-	.	.	2f\	al-	2b-\	al-
=9	=9	=9	=9	=9	=9	=9	=9
2E-X\	-le-	1c	-lu-	2g\	-le-	2b-\	-le-
2F\	-lu-	.	.	2f\	-lu-	2a\	-lu-
=10	=10	=10	=10	=10	=10	=10	=10
2BB-/	-ia,	2d\	-ia	2f\	-ia,	2b-\	-ia,
!LO:LB:g=original	!	!	!	!	!	!	!
=-	=-	=-	=-	=-	=-	=-	=-
2AA/	al-	2c\	al-	2f\	al-	2cc\	al-
!	!	!LO:LB:g=original	!	!	!	!	!
=11	=11	=11	=11	=11	=11	=11	=11
2GG/	-le-	2B-\	-le-	2f\	-le-	2dd\	-le-
2C/	-lu-	2B-\	-lu-	2e\	-lu-	2cc\	-lu-
=12	=12	=12	=12	=12	=12	=12	=12
2F\	-ia	2A\	-ia	2f\	-ia	2cc\	-ia
2A\	al-	2c\	al-	2f\	al-	2a\	al-
=13	=13	=13	=13	=13	=13	=13	=13
2B-\	-le-	2d\	-le-	2f\	-le-	2.g\	-le-
2c\	-lu-	2c\	-lu-	2e\	-lu-	.	.
.	.	.	.	.	.	4g\	-lu-
=14	=14	=14	=14	=14	=14	=14	=14
2F\	-ia,	2c\	-ia,	2f\	-ia,	2a\	-ia.
2r	.	2r	.	2r	.	2f/	A-
=15	=15	=15	=15	=15	=15	=15	=15
!LO:TX:a:t=6.	!	!LO:TX:a:t=5.	!	!	!	!	!
00r	.	00r	.	2r	.	4g/	-ve
.	.	.	.	.	.	4f/	.
.	.	.	.	2c\	A-	4g/	Ma-
.	.	.	.	.	.	4a\	.
!	!	!	!	!	!	!LO:LB:g=original	!
=16	=16	=16	=16	=16	=16	=16	=16
.	.	.	.	4d\	-ve	1b-	-ri-
.	.	.	.	4c\	.	.	.
.	.	.	.	4d\	Ma-	.	.
.	.	.	.	4e\	.	.	.
!	!	!	!	!LO:LB:g=original	!	!	!
=17	=17	=17	=17	=17	=17	=17	=17
.	.	.	.	1f	-ri-	2a\	-a,
.	.	.	.	.	.	2dd\	a-
=18	=18	=18	=18	=18	=18	=18	=18
.	.	.	.	2e\	-a,	2g\	-ve,
.	.	.	.	2a\	A-	2cc\	a-
=19	=19	=19	=19	=19	=19	=19	=19
0r	.	1r	.	2d\	-ve	2cc\	.
.	.	.	.	2g\	A-	2b-\	.
=20	=20	=20	=20	=20	=20	=20	=20
.	.	2r	.	2c\	-ve	2b-\	.
.	.	2F/	A-	[2f\	Ma-	2a\	.
=21	=21	=21	=21	=21	=21	=21	=21
2r	.	4G/	-ve	2f\]	.	1g	.
.	.	4F/	.	.	.	.	.
2C/	A-	4G/	Ma-	2e\	.	.	.
.	.	4A/	.	.	.	.	.
=22	=22	=22	=22	=22	=22	=22	=22
4D\	-ve	1B-	-ri-	1d	-ri-	4f/	-ve
4C\	.	.	.	.	.	4e/	.
4D\	.	.	.	.	.	4f/	Ma-
4E\	Ma-	.	.	.	.	4g/	.
=23	=23	=23	=23	=23	=23	=23	=23
1F	-ri-	2A\	-a	2c\	-a,	1a	-ri-
.	.	2d\	gra-	2d\	a-	.	.
!	!	!LO:LB:g=original	!	!	!	!	!
=24	=24	=24	=24	=24	=24	=24	=24
2E\	-a,	2G/	.	2e\	-ve-	2g\	-a,
2A\	gra-	2c\	.	2e\	-Ma-	2r	.
!LO:LB:g=original	!	!	!	!	!	!	!
=25	=25	=25	=25	=25	=25	=25	=25
2D\	.	2c\	.	2f\	-ri-	1dd	gra-
2G\	.	2B-\	.	2d\	-a	.	.
!	!	!	!	!	!	!LO:LB:g=original	!
=26	=26	=26	=26	=26	=26	=26	=26
2C/	.	2B-\	.	2e\	gra-	2.cc\	.
[2F\	.	2A\	.	2c\	.	.	.
.	.	.	.	.	.	4a\	-ti-
!	!	!	!	!LO:LB:g=original	!	!	!
=27	=27	=27	=27	=27	=27	=27	=27
2F\]	.	4G/	.	4d\	.	2bn\	-a
.	.	4G/	-ti-	4d\	-ti-	.	.
4E\	-ti-	2G/	-a	2e\	-a	[2cc\	ple-
4E\	-a	.	.	.	.	.	.
=28	=28	=28	=28	=28	=28	=28	=28
1D	ple-	2A\	ple-	1f	ple-	2cc\]	.
.	.	2F/	.	.	.	2bn\	.
=29	=29	=29	=29	=29	=29	=29	=29
2C/	-na,	2G/	-na	2e\	-na	2cc\	-na,
2c\	Do-	2e\	Do-	2g\	Do-	2cc\	Do-
=30	=30	=30	=30	=30	=30	=30	=30
4A\	-mi-	4f\	.	4a\	.	2cc\	.
4A\	.	4e\	-mi-	4a\	-mi-	.	.
2B-\	-nus	2d\	-nus	4g\	-nus	4b-X\	-mi-
.	.	.	.	4f\	.	4a\	-nus
=31	=31	=31	=31	=31	=31	=31	=31
2c\	te-	1c	te-	2f\	te-	1g	te-
2C/	.	.	.	2e\	.	.	.
=32	=32	=32	=32	=32	=32	=32	=32
2F\	-cum,	2c\	-cum	2f\	-cum,	2a\	-cum
4A\	be-	4c\	be-	4f\	be-	4cc\	be-
4A\	-ne-	4c\	-ne-	4f\	-ne-	4cc\	-ne-
!	!	!LO:LB:g=original	!	!	!	!	!
=33	=33	=33	=33	=33	=33	=33	=33
2B-\	-dic-	2d\	-dic-	2f\	-dic-	2dd\	-dic-
2G\	-ta	2e\	-ta	2g\	-ta	2b-\	-ta
!LO:LB:g=original	!	!	!	!	!	!LO:LB:g=original	!
=34	=34	=34	=34	=34	=34	=34	=34
2F\	tu	2f\	tu	2a\	tu	2cc\	tu
2E\	in	2c\	in	2g\	in	2g/	in
!	!	!	!	!LO:LB:g=original	!	!	!
=35	=35	=35	=35	=35	=35	=35	=35
2D\	mu-	2F/	mu-	2f\	mu-	2bn\	mu-
2C/	-li-	2G/	-li-	2e\	-li-	2cc\	-li-
=36	=36	=36	=36	=36	=36	=36	=36
2.G\	-e-	2.G/	-e-	2.d\	-e-	2.cc\	-e-
4GG/	-ri-	4G/	-ri-	4d\	-ri-	4bn\	-ri-
=37	=37	=37	=37	=37	=37	=37	=37
2C/	-bus,	2G/	-bus	2e\	-bus,	2cc\	-bus,
2r	.	2r	.	2r	.	2cc\	et
=38	=38	=38	=38	=38	=38	=38	=38
!LO:TX:a:t=6	!	!LO:TX:a:t=4.	!	!LO:TX:a:t=1.	!	!	!
00r	.	00r	.	1r	.	4dd\	be-
.	.	.	.	.	.	4cc\	.
.	.	.	.	.	.	4dd\	.
.	.	.	.	.	.	4g\	-ne-
=39	=39	=39	=39	=39	=39	=39	=39
.	.	.	.	2r	.	2cc\	-dic-
.	.	.	.	2f\	et	2a\	-tus
=40	=40	=40	=40	=40	=40	=40	=40
.	.	.	.	4g\	be-	4b-\	be-
.	.	.	.	4f\	.	4a\	.
.	.	.	.	4g\	-ne-	4b-\	.
*	*	*	*	*	*	*8\right	*
.	.	.	.	4c\	.	8cc\L	.
.	.	.	.	.	.	8b-\J	.
!	!	!	!	!	!	!LO:LB:g=original	!
=41	=41	=41	=41	=41	=41	=41	=41
.	.	.	.	2f\	-dic-	4a\	.
.	.	.	.	.	.	4g\	.
.	.	.	.	2d\	-tus	4a\	.
.	.	.	.	.	.	4bn\	-ne-
=42	=42	=42	=42	=42	=42	=42	=42
0r	.	2r	.	4e\	be-	4cc\	-di-
*	*	*	*	*8\right	*	*	*
.	.	.	.	8g\L	.	4g\	.
.	.	.	.	8f\J	.	.	.
.	.	2c\	et	4e\	.	[2cc\	.
.	.	.	.	4g\	.	.	.
=43	=43	=43	=43	=43	=43	=43	=43
.	.	4d\	be-	1f	.	2cc\]	.
.	.	4c\	.	.	.	.	.
.	.	4d\	.	.	.	2bn\	.
.	.	4G/	-ne-	.	.	.	.
!	!	!	!	!LO:LB:g=original	!	!	!
=44	=44	=44	=44	=44	=44	=44	=44
2r	.	2c\	-dic-	2e\	-ne-	2cc\	-ctus,
2F\	et	2A\	-tus	[2f\	-dic-	4r	.
.	.	.	.	.	.	4cc\	et
!	!	!LO:LB:g=original	!	!	!	!	!
=45	=45	=45	=45	=45	=45	=45	=45
4G\	be-	4B-\	be-	2f\]	.	4b-X\	be-
4F\	.	4d\	.	.	.	4a\	.
4G\	.	4G\	.	2e\	.	4b-\	.
*	*	*8\right	*	*	*	*	*
4C/	-ne-	8c\L	-ne-	.	.	4g\	-ne-
.	.	8B-\J	.	.	.	.	.
=46	=46	=46	=46	=46	=46	=46	=46
2F\	-dic-	2A\	-dic-	2f\	-ctus,	2a\	-dic-
2D\	-tus	2Bn\	-tus	4r	.	2dd\	.
.	.	.	.	4f\	et	.	.
=47	=47	=47	=47	=47	=47	=47	=47
4E\	be-	4c\	be-	4e\	be-	2g\	-tus,
4D\	.	4d\	.	4f\	.	.	.
4C\	.	4e\	.	4g\	-ne-	2cc\	Fru-
4A\	-ne-	4c\	-ne-	4e\	.	.	.
!LO:LB:g=original	!	!	!	!	!	!LO:LB:g=original	!
=48	=48	=48	=48	=48	=48	=48	=48
4D\	-dic-	4d\	-dic-	4f\	-dic-	2cc\	.
4D\	-tus	4d\	-tus	4f\	-tus	.	.
2G\	fru-	2d\	fruc-	2g\	fruc-	2b-X\	.
=49	=49	=49	=49	=49	=49	=49	=49
2C/	-ctus	2e\	-tus	2g\	-tus	2b-\	.
[2F\	ven-	4f\	Ven-	4f\	Ven-	2a\	-ctus
.	.	4A\	.	4e\	.	.	.
=50	=50	=50	=50	=50	=50	=50	=50
2F\]	.	2Bn\	.	2d\	.	2g\	Ven-
2E\	-tris	[2c\	-tris	2e\	-tris	2g\	-tris
=51	=51	=51	=51	=51	=51	=51	=51
1D	tu-	2c\]	.	1f	tu-	2a\	tu-
.	.	2Bn\	tu-	.	.	2f/	.
!	!	!LO:LB:g=original	!	!LO:LB:g=original	!	!	!
=52	=52	=52	=52	=52	=52	=52	=52
2C/	-i	2c\	-i,	2e\	-i,	2g\	-i,
4c\	fru-	4c\	Fruc-	4g\	fru-	4cc\	Fru-
4B-\	-ctus	4c\	-tus	4g\	-ctus	4cc\	-ctus
=53	=53	=53	=53	=53	=53	=53	=53
2A\	ven-	2c\	Ven-	4f\	Ven-	2cc\	Ven-
.	.	.	.	4f\	-tris	.	.
2B-\	-tris	2d\	-tris	[2f\	tu-	4b-X\	.
.	.	.	.	.	.	4a\	-tris
=54	=54	=54	=54	=54	=54	=54	=54
2c\	tu-	1c	tu-	2f\]	.	1g	tu-
2C/	.	.	.	2e\	.	.	.
=55	=55	=55	=55	=55	=55	=55	=55
2F\	-i,	2c\	-i	2f\	-i	2a\	-i
2r	.	2F/	al-	2r	.	2a\	Al-
=56	=56	=56	=56	=56	=56	=56	=56
2r	.	4G/	-le-	2r	.	4b-\	-le-
.	.	4F/	.	.	.	4a\	.
!	!	!	!	!	!	!LO:LB:g=original	!
=-	=-	=-	=-	=-	=-	=-	=-
2C/	al-	4G/	.	2e\	al-	4b-\	-lu-
.	.	4A/	-lu-	.	.	4cc\	.
!LO:LB:g=original	!	!	!	!	!	!	!
=57	=57	=57	=57	=57	=57	=57	=57
4D/	-le-	2B-\	-ia,	4f\	-le-	2f/	-ia
4C/	.	.	.	4e\	.	.	.
4D/	.	2r	.	4f\	-lu-	2r	.
4E/	-lu-	.	.	4g\	.	.	.
=58	=58	=58	=58	=58	=58	=58	=58
2F\	-ia	2r	.	2a\	-ia	2r	.
2F\	al-	2A\	al-	2a\	al-	[2dd\	al-
=59	=59	=59	=59	=59	=59	=59	=59
2E\	-le-	2B-\	.	1g	.	2dd\]	.
2A\	-lu-	2A\	.	.	.	2cc\	.
!	!	!LO:LB:g=original	!	!LO:LB:g=original	!	!	!
=60	=60	=60	=60	=60	=60	=60	=60
2D\	-ia	2A\	.	1f	.	2cc\	.
2G\	al-	2G/	.	.	.	2b-\	.
=61	=61	=61	=61	=61	=61	=61	=61
2C/	-le-	2G/	.	1e	-le-	2b-\	.
2F\	-lu-	2F/	-le-	.	.	2a\	.
=62	=62	=62	=62	=62	=62	=62	=62
2BB-/	-ia	2d\	-lu-	2f\	-lu-	2g\	-le-
2C/	al-	2c\	.	2e\	.	2g\	-lu-
=63	=63	=63	=63	=63	=63	=63	=63
2F\	-le-	2c\	-ia	2f\	-ia	2a\	-ia
[2B-\	.	[2B-\	al-	[2f\	al-	[2dd\	al-
=64	=64	=64	=64	=64	=64	=64	=64
2B-\]	.	2B-\]	.	2f\]	.	2dd\]	.
2F\	.	2A\	-le-	2f\	-le-	2cc\	-le-
=65	=65	=65	=65	=65	=65	=65	=65
1B-	-lu-	1B-	-lu-	1f	-lu-	1dd	-lu-
=66	=66	=66	=66	=66	=66	=66	=66
1F	-ia.	1A	-ia.	1f	-ia.	1cc	-ia
==	==	==	==	==	==	==	==
*-	*-	*-	*-	*-	*-	*-	*-
!!!system-decoration: [(s1,s2,s3,s4)]
!!!ENC: Anastazja Marusiak
!!!END: 2023-11-07
!!!EED: Marta Chmielewska
!!!EEV: 2023-11-27
